X: 7954
T: Condon's Frolics
R: jig
M: 6/8
K: Adorian
|:eAB c2d|edc BAG|eAB c2d|~e2d eag|
eAB c2d|edc BAG|GBd gdB|1 ~A3 A2d:|2 ~A3 A2e||
|:e2a e2g|ded BAG|~c3 dcd|~e2d efg|
e2a e2g|ded BAG|GBd gdB|1 ~A3 A2e:|2 ~A3 A2d||

